!!!!SEGMENT: pl-wtm--r-59-n_noskowski-zygmunt--marsz-krakowski.krn
!!!cenid: 18xx:2108
!!!COM: Noskowski, Zygmunt
!!!COM-rismID: pe106604
!!!CDT: 1846/05/02-1909/07/23
!!!CNT: Polish
!!!OTL: Marsz krakowski
!!!PDT:
!!!AGN: Secular; March
!!!SMS-siglum: PL-Wtm
!!!SMS-shelfmark: R 59/N
!!!SMS-shelfwork: W
!!!SMS-variant:
!!!SMS-altvar:
!!!NIFC-rismSourceID: 1001101671
!!!NIFC-rismChildID: 1001101671
!!!NIFC-islandoraID:
!!!URL-pdf-islandora:
!!!URL-scan:
!!!ONB-nifc:
!!!OMD: Tempo di Marcia.
!!!AIN: 1 empty 1 piano
!!!key:
**kern	**kern	**dynam
*part2	*part1	*part1
*staff2	*staff1	*
*Iempty	*Ipiano	*
*	*I"[Pianoforte]	*
*	*mI"Pianoforte	*
*	*I'[pf]	*
*	*mI'pf	*
*clefF4	*clefG2	*
*k[b-e-a-]	*k[b-e-a-]	*
*E-:	*E-:	*
*M2/2	*M2/2	*
*met(c|)	*met(c|)	*
*>[A,B,B1,B,B2,C,C1,C,C2,D,E,F,F1,F,F2,G,G1,G,G2,H,B,B1,B,B2,C,C1,C,C2,D,E,F,F1,F,F2,G,G1,G,G2,H,I]	*	*
*>A	*	*
!	!LO:TX:t=P:problem=4,8,16\left, middle or right&colon; global	!
!	!	!LO:DY:rj
(8e-\L	(8ee-\L	f
8c\J)	8cc\J)	.
=1	=1	=1
4A-\	4a-/	.
(8F\L	(8f/L	.
8c\J)	8cc/J)	.
4B-\	4b-\	.
(8f\L	(8ff\L	.
8d\J)	8dd\J)	.
=2	=2	=2
4B-\	4b-\	.
4c\ 4F\	(8cc\L 8a-\	.
.	8ee-\J)	.
4d\ 4B-\	4dd\ 4b-\	.
4r	(8dd\L	.
.	8cc\J)	.
=3	=3	=3
4r	4b-\	.
4c\ 4A-\ 4F\	(8cc\L	.
.	8ee-\J)	.
4B-\ 4A-\ 4F\	8dd'\L	.
.	8ee-'\	.
4c\ 4A-\ 4F\	8ff'\	.
.	8gg'\J	.
=4	=4	=4
2.B-\ 2.BB-^^\	2.aa-\ 2.dd\ 2.a-^^\	.
4r	(8bb-\L	p
.	8gg\J	.
=5!|:	=5!|:	=5!|:
*>B	*	*
!	!LO:TX:a:t=[segno]	!
4E-\	4ee-\)	.
4e-\ 4B-\ 4G\	4ee-\: 4b-\: 4g':\	.
4BB-/	(8ee-\L	.
.	8b-\	.
4e-\ 4B-\ 4G\	8cc\	.
.	8dd\J)	.
!!LO:LB:g=original
=6	=6	=6
4E-\	4ee-\	.
!	!	!LO:DY:rj
4B-\ 4BB-^^\	4ff\ 4dd\ 4b-\ 4f^^\	f
4E-/ 4EE-^^/	4gg\ 4ee-\ 4b-\ 4g^^\	.
4r	(8bb-\L	p
.	8gg\J	.
=7	=7	=7
4E-/ 4EE-/	4ee-\)	.
4e-\ 4B-\ 4G\	8ee-'\L	.
.	8gg'\J	.
4E-\	(8aa-\L	.
.	8bb-\	.
4e-\ 4c\ 4A-\	8ccc\	.
.	8aa-\J	.
=8	=8	=8
4E-/ 4EE-/	4bb-\)	.
4B-\ 4G\ 4E-\	(8eee-\L 8ee-\	.
.	8ccc\J	.
4e-\ 4B-\ 4G\	4bb-\)	.
4r	(8aa-\L	.
.	8gg\J)	.
=9	=9	=9
4BB-/	4ff'\	.
4d\ 4B-\ 4A-\	4ff'\	.
4D\	(8ff\L	.
.	8gg\)	.
4f\ 4B-\ 4A-\	8ff'\	.
.	8bb-'\J	.
=10	=10	=10
4E-\	4gg'\	.
4e-\ 4B-\ 4G\	4ee-'\	.
4C/	(8ee-\L	.
.	8ff\)	.
4e-\ 4B-\ 4G\	8ee-'\	.
.	8gg'\J	<
=11	=11	=11
4F/ 4FF/	4ff\	.
4d\ 4B-\ 4F\	8aan'\L	.
.	8bb-'\J	[
2e-\ 2An\ 2F^^\	(8ccc\L	.
.	8eee-\)	.
.	8ddd'\	.
.	8ccc'\J	.
!!LO:LB:g=original
=12	=12	=12
!	!	!LO:DY:rj
4d\ 4B-\	4bb-\	f
4e-\ 4An\ 4F\	(8ccc\L	.
.	8aan\J	.
4d\ 4B-\	4bb-\)	.
4r	(8bb-\L	p
.	8gg\J	.
=13	=13	=13
4E-\	4ee-\)	.
4e-\ 4B-\ 4G\	4ee-\: 4b-\: 4g:\	.
4BB-/	(8ee-\L	.
.	8b-\	.
4e-\ 4B-\ 4G\	8cc\	.
.	8dd\J)	.
=14	=14	=14
4E-\	4ee-\	.
!	!	!LO:DY:rj
4B-\ 4BB-\	4ff\ 4dd\ 4b-\ 4f^^\	f
4E-/ 4EE-/	4gg\ 4ee-\ 4b-\ 4g^^\	.
4r	(8bb-\L	p
.	8gg\J	.
=15	=15	=15
4E-/ 4EE-/	4ee-\)	.
4e-\ 4B-\ 4G\	8ee-'\L	.
.	8gg'\J	.
4E-\	(8aa-\L	.
.	8bb-\	.
4e-\ 4c\ 4A-\	8ccc\	.
.	8aa-\J)	.
=16	=16	=16
4E-/ 4EE-/	4bb-\	.
4B-\ 4G\ 4E-\	(8eee-\L 8ee-\	.
.	8ccc\J	.
4e-\ 4B-\ 4G\	4bb-\)	.
4r	(8ff#X\L	.
.	8gg\J)	.
=17	=17	=17
4F#X\	(4.aan\	.
4d\ 4c\ 4An\	.	.
.	8bb-\)	.
4D\	(8ccc\L	.
.	8ddd\)	.
4d\ 4c\ 4F#\	8aa'\	.
.	8ddd'\J	.
!!LO:LB:g=original
=18	=18	=18
4GG/	(4.bb-\	.
4d\ 4B-\ 4G\	.	.
.	8aan\)	.
4C/	(8gg\L	.
.	8ff#X\)	.
4e-\ 4An\ 4G\	8gg'\	.
.	8ee-'\J	.
=19	=19	=19
!	!	!LO:DY:rj
2d\ 2B-\ 2G\ 2D^^\	4dd\	f
.	8ff#X'\L	.
.	8gg'\J	.
2d\ 2c\ 2F#X\ 2D^^\	(8aan\L	.
.	8gg\)	.
.	8aa'\	.
.	8bb-'\J	.
=20	=20	=20
!LO:TX:a:t=1a	!	!
*>B1	*	*
4d\ 4B-\ 4G\	2gg\	.
4D\	.	.
4GG/	4r	.
4r	(8bb-\L	p
.	8gg\J)	.
=21:|!	=21:|!	=21:|!
!LO:TX:a:t=2a	!	!
*>B2	*	*
4d\ 4B-\ 4G\	2gg\	.
4D\	.	.
4GG/	4r	.
4r	(8aa-X\L	<
.	8bb-\J)	[[
=22!|:	=22!|:	=22!|:
*>C	*	*
4BB-/ 4BBB-^^/	4ccc\ 4aa-\ 4cc^^\	f
4r	8r	.
.	8ff\ 8dd\ 8f\	.
2r	4ff\ 4dd\ 4f\	.
.	4ee-\ 4cc\ 4e-\	.
=23	=23	=23
4BB-/	4dd\ 4b-\	.
2d\ 2A-\ 2F\	4cc\ 4a-\	.
.	4b-/ 4a-/	.
4d\ 4A-\ 4F\	4aa-\ 4ff\ 4a-\	.
!!LO:LB:g=original
=24	=24	=24
4E-\	4.gg\ 4.ee-\ 4.g\	.
4e-\ 4B-\ 4G\	.	.
.	8aa-\ 8a-\	.
4BB-/	4bb-\ 4b-\	.
4e-\ 4B-\ 4G\	4gg\ 4g\	.
=25	=25	=25
4E-/ 4EE-/	4ccc\ 4aa-\ 4cc\	.
8e-\L 8B-\ 8G\	2.bb-\ 2.gg\ 2.b-^^\	.
8e-\J 8B-\ 8G\	.	.
4e-\ 4B-\ 4G\	.	.
4e-\ 4B-\ 4G\	.	.
=26	=26	=26
4D\	4.ff\ 4.b-\ 4.f\	.
4f\ 4B-\ 4A-\	.	.
.	8gg\ 8g\	.
4BB-/	4aa-\ 4a-\	.
4d\ 4B-\ 4A-\	4ff\ 4f\	.
=27	=27	=27
4BB-/	4bb-\ 4gg\ 4b-\	.
8d\L 8B-\ 8A-\ 8F\	2.aa-\ 2.ff\ 2.a-^^\	.
8d\J 8B-\ 8A-\ 8F\	.	.
4d\ 4B-\ 4A-\ 4F\	.	.
4d\ 4B-\ 4A-\ 4F\	.	.
=28	=28	=28
4e-\ 4B-\ 4G\ 4E-\	4.gg\ 4.ee-\ 4.g\	.
4r	.	.
.	8dd/ 8d/	.
2r	4ee-/ 4e-/	.
.	4ff/ 4f/	.
=29	=29	=29
4r	4gg\ 4g\	<
4G/ 4GG/	4ee-\ 4e-\	.
4E-/ 4EE-/	4gg\ 4g\	.
4C/ 4CC/	4bb-\ 4b-\	[
=30	=30	=30
4BB-/ 4BBB-^^/	4ccc\ 4aa-\ 4cc^^\	.
4r	8r	.
.	8ff\ 8dd\ 8f\	.
2r	4ff\ 4dd\ 4f\	.
.	4ee-\ 4e-\	.
=31	=31	=31
4BBn/	4dd/ 4d/	.
4d\ 4G\ 4F\	4aa-\ 4ff\ 4a-\	.
4GG/	4gg\ 4ee-\ 4g\	.
4Bn\ 4G\ 4F\	4ff\ 4dd\ 4f\	.
!!LO:LB:g=original
=32	=32	=32
4C/ 4CC/	4.ee-/ 4.cc/ 4.e-/	.
4c\ 4G\ 4E-\	.	.
.	8dd/ 8d/	.
4C/	4ee-/ 4e-/	.
4c\ 4G\ 4E-\	4gg\ 4g\	.
=33	=33	=33
4E-/ 4EE-/	4ddd\ 4gg\ 4dd\	.
8c\L 8G\ 8E-\	2.ccc\ 2.gg\ 2.cc^^\	.
8c\J 8G\ 8E-\	.	.
4c\ 4G\ 4E-\	.	.
4c\ 4G\ 4E-\	.	.
=34	=34	=34
4F/ 4FF/	4.bb-\ 4.b-\	.
4d\ 4c\ 4A-\	.	.
.	8aa-\ 8a-\	.
4F\	4aa-\ 4a-\	.
4d\ 4c\ 4A-\	4ccc\ 4cc\	.
=35	=35	=35
4G/ 4GG/	4aa-\ 4a-\	.
8c\L 8G\ 8E-\	2gg\ 2g^^\	.
8c\J 8G\ 8E-\	.	.
4c\ 4G\ 4E-\	.	.
4r	4cc\	.
=36	=36	=36
4GG/	4.dd\ 4.bn\	.
4Bn\ 4G\ 4F\	.	.
.	8ee-\ 8cc\	.
4GG/	4ff\ 4dd\	.
4B\ 4G\ 4F\	4b/ 4g/ 4f/	.
=37	=37	=37
!LO:TX:a:t=1a	!	!
*>C1	*	*
4C/ 4CC/	2cc/ 2g/ 2e-/	.
4c\ 4G\ 4E-\	.	.
4C/	4r	.
4r	8aa-\L	.
.	8bb-\J	.
=38:|!	=38:|!	=38:|!
!LO:TX:a:t=2a	!	!
*>C2	*	*
4C/ 4CC/	2cc/ 2g/ 2e-/	.
4c\ 4G\ 4E-\	.	.
4C/	4r	.
4r	(8gg\L	p
.	8ee-\J	.
=39	=39	=39
*>D	*	*
4r	4cc\)	.
4f\ 4Bn\ 4G\	8dd'\L	.
.	8g'\J	.
4e-\ 4c\	4cc\	.
4r	(8gg\L	.
.	8ee-\J	.
!!LO:PB:g=original
=40	=40	=40
4r	4cc\)	.
4c\ 4A-\ 4F\	(8dd\L	.
.	8ff\J	.
4c\ 4G\ 4C\	4ee-\)	.
4r	(8aa-\L	mf
.	8ff\J	.
=41	=41	=41
4r	4dd\)	.
4c\ 4A-\ 4F\	8ee-'\L	.
.	8cc'\J	<
4B-\ 4F\ 4BB-\	4dd'\	.
4r	(8aa-\L	.
.	8ff\J	[
=42	=42	=42
4r	4dd\)	.
4ryy	8ee-'\L	.
.	8gg'\J	.
2ryy	4ff\	.
.	(8bb-\L	p
.	8gg\J	.
=43	=43	=43
4E-\	4ee-\)	.
4e-\ 4B-\ 4G\	4ee-\: 4b-\: 4g:\	.
4BB-/	(8ee-\L	.
.	8b-\	.
4e-\ 4B-\ 4G\	8cc\	.
.	8dd\J)	.
=44	=44	=44
4E-\	4ee-\	.
!	!	!LO:DY:rj
4B-\ 4BB-\	4ff\ 4dd\ 4b-\ 4f^^\	f
4E-/ 4EE-/	4gg\ 4ee-\ 4b-\ 4g^^\	.
4r	(8bb-\L	p
.	8gg\J	.
=45	=45	=45
4E-/ 4EE-/	4ee-\)	.
4e-\ 4B-\ 4G\	8ee-'\L	.
.	8gg'\J	.
4E-\	(8aa-\L	.
.	8bb-\	.
4e-\ 4c\ 4A-\	8ccc\	.
.	8aa-\J)	.
=46	=46	=46
4E-/ 4EE-/	4bb-\	.
4B-\ 4G\ 4E-\	(8eee-\L 8ee-\	.
.	8ccc\J	.
4e-\ 4B-\ 4G\	4bb-\)	.
4r	(8aa-\L	.
.	8gg\J)	.
=47	=47	=47
4BB-/	4ff'\	.
4d\ 4B-\ 4A-\	4ff'\	.
4D\	(8ff\L	.
.	8gg\)	.
4f\ 4B-\ 4A-\	8ff'\	.
.	8bb-'\J	.
!!LO:LB:g=original
=48	=48	=48
4E-\	4gg'\	.
4e-\ 4B-\ 4G\	4ee-'\	.
4C/	(8ee-\L	.
.	8ff\)	.
4e-\ 4B-\ 4G\	8ee-'\	.
.	8ff'\J	<
=49	=49	=49
4F/ 4FF/	4ff\	.
4d\ 4B-\ 4F\	8aan'\L	.
.	8bb-'\J	.
2e-\ 2An\ 2F^^\	(8ccc\L	[
.	8eee-\)	.
.	8ddd'\	.
.	8ccc'\J	.
=50	=50	=50
4d\ 4B-\	4bb-\	f
4c\ 4An\ 4F\	(8ccc\L	.
.	8aan\J	.
4d\ 4B-\	4bb-\)	.
4r	(8bb-\L	p
.	8gg\J	.
=51	=51	=51
4E-\	4ee-\)	.
4e-\ 4B-\ 4G\	4ee-\: 4b-\: 4g:\	.
4BB-/	(8ee-\L	.
.	8b-\	.
4e-\ 4B-\ 4G\	8cc\	.
.	8dd\J)	.
=52	=52	=52
4E-\	4ee-\	.
!	!	!LO:DY:rj
4B-\ 4BB-\	4ff\ 4dd\ 4b-\ 4f^^\	f
4E-/ 4EE-/	4gg\ 4ee-\ 4b-\ 4g^^\	.
4r	(8bb-\L	p
.	8gg\J	.
=53	=53	=53
4E-/ 4EE-/	4ee-\)	.
4e-\ 4B-\ 4G\	8ee-'\L	.
.	8gg'\J	.
4E-\	(8aa-\L	.
.	8bb-\	.
4e-\ 4c\ 4A-\	8ccc\	.
.	8aa-\J)	.
=54	=54	=54
4E-/ 4EE-/	4bb-\	<
4B-\ 4G\ 4E-\	(8eee-\L 8ee-\	.
.	8ccc\J	.
4e-\ 4B-\ 4G\	4bb-\)	[
4r	8ddd\L	.
.	8eee-\J	.
!!LO:LB:g=original
=55	=55	=55
4AA-/ 4AAA-/	4.fff\ 4.ff^^\	f
4c\ 4F\ 4E-\	.	.
.	(8eee-\	.
4c\ 4F\ 4E-\	8ddd\L	.
.	8eee-\	.
4r	8ccc\	.
.	8eee-\J)	.
=56	=56	=56
4BB-/ 4BBB-/	4.fff\ 4.ff^^\	.
4B-\ 4G\ 4E-\	.	.
.	(8eee-\	.
4e-\ 4B-\ 4G\	8ddd\L	.
.	8eee-\	.
4r	8gg\	.
.	8ccc\J)	.
=57	=57	=57
4BB-/ 4BBB-/	4bb-\	.
2d\ 2B-\ 2A-\ 2F\	8ddd'\L	.
.	8eee-'\J	.
.	(8fff\L	.
.	8eee-\)	.
4BB-/ 4BBB-/	8fff'\	.
!	!LO:MO:mod=!LO&colon;TX&colon;B&colon;t=*Coda	!
!	!LO:TX:a:t=*Coda	!
.	8ggg'\J	.
=58	=58	=58
*	*Coda	*
4E-/ 4EE-/	2eee-^^\	.
4B-\ 4G\ 4E-\	.	.
4e-\ 4B-\ 4G\	4r	.
4r	8ee-/L 8e-/	p
.	8ee-/J 8e-/	.
=59||	=59||	=59||
*>E	*	*
*k[b-e-a-d-]	*k[b-e-a-d-]	*
4r	4ee-/ 4e-/	.
!	!	!LO:DY:rj
8BB-/L 8BBB-/	8ff\L 8dd-\ 8a-\ 8f\	f
8BB-/J 8BBB-/	8ff\J 8dd-\ 8a-\ 8f\	.
4BB-/ 4BBB-/	4ff\ 4dd-\ 4a-\ 4f\	.
!	!	!LO:DY:rj
8d-'\L	8dd-'\L	p
8c'\J	8cc'\J	.
=60	=60	=60
4B-\	4b-\	.
8c\L 8C\	8ee-/L 8a-/ 8e-/	f
8c\J 8C\	8ee-/J 8a-/ 8e-/	.
4c\ 4C\	4ee-/ 4a-/ 4e-/	.
8c'\L	8cc'\L	p
8B-'\J	8b-'\J	.
!!LO:LB:g=original
=61	=61	=61
4A-\	4a-/	.
!	!	!LO:DY:rj
8B-\L 8BB-\	8dd-/L 8a-/ 8d-/	f
8B-\J 8BB-\	8dd-/J 8a-/ 8d-/	.
4B-\ 4BB-\	4dd-/ 4a-/ 4d-/	.
4A-\ 4AA-\	4f/ 4d-/ 4B-/	.
=62	=62	=62
4G/ 4GG/	4e-/ 4d-/ 4B-/	.
8G/L 8GG/	4r	.
8F/J 8FF/	.	.
2E-/ 2EE-^^/	2dd-/ 2g/ 2d-^^/	.
=63!|:	=63!|:	=63!|:
*>F	*	*
!	!LO:MO:mod=!LO&colon;TX&colon;B&colon;t=Trio Volkslied Krakowiak	!
!	!LO:TX:a:t=Trio (Volkslied Krakowiak)	!
4AA-/ 4AAA-/	4cc/ 4a-/ 4c/	mf
2A-\ 2E-\	4dd-/ 4b-/ 4d-/	.
.	2ee-/ 2cc/ 2e-/	.
4A-\ 4E-\	.	.
=64	=64	=64
4AA-/	4ccc\ 4aa-\ 4cc\	.
8c\L 8A-\ 8E-\	2ccc\ 2aa-\ 2cc^\	.
8c\J 8A-\ 8E-\	.	.
4c\ 4A-\ 4E-\	.	.
4c\ 4A-\ 4E-\	4bb-\ 4b-\	.
=65	=65	=65
4AA-/	4aa-\ 4a-\	.
4c\ 4A-\ 4E-\	4gg\ 4ee-\ 4g\	.
4C/ 4CC/	4ff\ 4dd-\ 4f\	.
4c\ 4A-\ 4E-\	4ee-\ 4cc\ 4e-\	.
=66	=66	=66
4E-/ 4EE-/	4ee-/ 4cc/ 4e-/	.
8B-\L 8E-\	2.dd-/ 2.b-/ 2.d-^>/	.
8B-\J 8E-\	.	.
4B-\ 4E-\	.	.
4B-\ 4E-\	.	.
=67	=67	=67
4E-/ 4EE-/	4b-/ 4g/ 4B-/	.
2G\ 2E-\	4cc/ 4c/	.
.	2dd-/ 2b-/ 2d-/	.
4G\ 4E-\	.	.
=68	=68	=68
4E-/ 4EE-/	4bb-\ 4gg\ 4b-\	.
8d-\L 8G\ 8E-\	2bb-\ 2gg\ 2b-^\	.
8d-\J 8G\ 8E-\	.	.
4d-\ 4G\ 4E-\	.	.
4d-\ 4G\ 4E-\	4aa-\ 4ff\ 4a-\	.
!!LO:LB:g=original
=69	=69	=69
4E-/ 4EE-/	4gg\ 4ee-\ 4g\	.
4B-\ 4E-\	4ff\ 4dd-\ 4f\	.
4GG/	4ee-\ 4cc\ 4e-\	.
4B-\ 4E-\	4dd-/ 4b-/ 4d-/	.
=70	=70	=70
4AA-/	4dd-/ 4b-/ 4d-/	.
8A-\L 8E-\	2cc/ 2a-/ 2c^>/	.
8A-\J 8E-\	.	.
4A-\ 4E-\	.	.
4r	4ee-/ 4e-/	.
=71	=71	=71
!	!	!LO:DY:rj
2D-/ 2DD-^/	4.aa-\ 4.ff\ 4.a-^\	f
.	8gg\ 8een\	.
4D-/ 4DD-/	4aa-\ 4ff\	.
4F/ 4FF/	4ff\ 4dd-\	.
=72	=72	=72
4A-\ 4AA-\	4ee-\ 4cc\	.
8c\L 8A-\ 8E-\	2cc\ 2a-^\	.
8c\J 8A-\ 8E-\	.	.
4c\ 4A-\ 4E-\	.	.
4c\ 4A-\ 4E-\	4ee-\ 4cc\	.
=73	=73	=73
2D-/ 2DD-^/	4.aa-\ 4.ff\ 4.a-^\	.
.	8gg\ 8een\	.
4D-/ 4DD-/	4aa-\ 4ff\	.
4F/ 4FF/	4ff\ 4dd-\	.
=74	=74	=74
4A-/ 4AA-/	4ee-\ 4cc\	.
8c\L 8A-\ 8E-\	2cc\ 2a-^\	.
8c\J 8A-\ 8E-\	.	.
4c\ 4A-\ 4E-\	.	.
4r	(8a-/L	mf
.	8f/J	.
=75	=75	=75
4E-/ 4EE-/	4e-/)	.
2d-\ 2G\ 2E-\	(8g/L	.
.	8a-/J)	.
.	4b-\	.
4d-\ 4G\ 4E-\	4cc\	.
=76	=76	=76
4GG/	4dd-\	.
4d-\ 4B-\ 4E-\	2ff\ 2dd-\ 2f^^\	.
4EE-/	.	.
4d-\ 4G\ 4E-\	(8ee-\L	.
.	8dd-\J)	.
!!LO:LB:g=original
=77	=77	=77
4AA-/	4cc\	.
4c\ 4A-\ 4E-\	4ee-\ 4cc\	.
4E-/ 4EE-/	4.dd-\ 4.b-\	.
4d-\ 4G\ 4E-\	.	.
.	8b-/ 8e-/	.
=78	=78	=78
!LO:TX:a:t=1a	!	!
*>F1	*	*
4AA-/	4b-/ 4e-/	.
2A-\ 2E-\	2a-/ 2c/	.
4A-\ 4E-\	4r	.
=79:|!	=79:|!	=79:|!
!LO:TX:a:t=2a	!	!
*>F2	*	*
4AA-/	4b-/ 4e-/	.
2A-\ 2E-\	2a-/ 2c/	.
4r	4cc/ 4c/	.
=80!|:	=80!|:	=80!|:
*>G	*	*
4FF/	4.aa-\ 4.a-\	f
4c\ 4A-\ 4F\	.	.
.	8gg\ 8g\	.
4AA-/	4ff\ 4f\	.
4c\ 4A-\ 4F\	4aa-\ 4a-\	.
=81	=81	=81
4C/	2gg\ 2g\	.
2c\ 2G\ 2En\	.	.
.	2een/ 2en/	.
4c\ 4G\ 4E\	.	.
=82	=82	=82
4BB-/	4.cc/ 4.g/ 4.en/	.
2c\ 2G\ 2En\	.	.
.	8een/ 8e/	.
.	4ee/ 4e/	.
4c\ 4G\ 4E\	4ee/ 4e/	.
=83	=83	=83
4AA-/	4ff\ 4f\	.
4c\ 4A-\ 4F\	2ccc\ 2cc\	.
4GG/	.	.
4c\ 4B-\ 4En\	4bb-\ 4b-\	.
=84	=84	=84
4FF/	(8aa-\L	.
.	8bb-\	.
4c\ 4A-\ 4F\	8aa-\	.
.	8gg\J	.
4AA-/	4ff\)	.
4c\ 4A-\ 4F\	4aa-\ 4a-\	.
!!LO:LB:g=original
=85	=85	=85
4C/	2.gg\ 2.g\	.
8c\L 8G\ 8En\	.	.
8c\J 8G\ 8E\	.	.
4c\ 4G\ 4E\	.	.
4r	4een/ 4en/	.
=86	=86	=86
4C/ 4CC/	4cc/ 4c/	.
4r	4ccc\ 4cc\	.
2B-\ 2En\ 2C\	4.ccc\ 4.cc\	.
.	8een/ 8en/	.
=87	=87	=87
*>G1	*	*
!LO:TX:a:t=1a	!	!
4FF/	4gg\ 4g\	.
4A-\ 4F\ 4C\	2ff\ 2f^^\	.
4FF/	.	.
4r	4cc/ 4c/	.
=88:|!	=88:|!	=88:|!
!LO:TX:a:t=2a	!	!
*>G2	*	*
4FF/	4gg\ 4g\	.
2A-\ 2F\ 2C\	2ff\ 2f^^\	.
4GG/	8ee-X/L 8e-X/	.
.	8dd-/J 8d-/	.
=89	=89	=89
*>H	*	*
4AA-/	4cc/ 4c/	mf
2A-\ 2E-\	4dd-/ 4b-/ 4d-/	.
.	2ee-/ 2cc/ 2e-/	.
4A-\ 4E-\	.	.
=90	=90	=90
4AA-/	4ccc\ 4aa-\ 4cc\	.
8c\L 8A-\ 8E-\	2ccc\ 2aa-\ 2cc\	.
8c\J 8A-\ 8E-\	.	.
4c\ 4A-\ 4E-\	.	.
4c\ 4A-\ 4E-\	4bb-\ 4gg\ 4b-\	.
=91	=91	=91
4AA-/	4.aa-\ 4.ff\ 4.a-\	.
4c\ 4A-\ 4E-\	.	.
.	8gg\ 8ee-\	.
4C/	(8gg\L 8ee-\	.
.	8ff\ 8dd-\)	.
4c\ 4A-\ 4E-\	(8ff\ 8dd-\	.
.	8ee-\J 8cc\)	.
=92	=92	=92
4E-/ 4EE-/	4ee-\ 4cc\	.
8B-\L 8E-\	2dd-\ 2b-^\	.
8B-\J 8E-\	.	.
4B-\ 4E-\	.	.
4r	(8dd-\L 8b-\	.
.	8cc\J 8a-\)	.
!!LO:PB:g=original
=93	=93	=93
4E-/ 4EE-/	4b-/ 4g/	.
2d-\ 2G\ 2E-\	4cc\ 4a-\	.
.	2dd-\ 2b-\	.
4d-\ 4G\ 4E-\	.	.
=94	=94	=94
4E-/ 4EE-/	4bb-\ 4gg\	.
8d-\L 8G\ 8E-\	2bb-\ 2gg\ 2b-\	.
8d-\J 8G\ 8E-\	.	.
4d-\ 4G\ 4E-\	.	.
4d-\ 4G\ 4E-\	4aa-\ 4ff\ 4a-\	.
=95	=95	=95
4E-/ 4EE-/	4.gg\ 4.ee-\ 4.g\	.
4B-\ 4E-\	.	.
.	8ff\ 8dd-\	.
4GG/	(8ff\L 8dd-\	.
.	8ee-\ 8cc\)	.
4B-\ 4E-\	(8ee-\ 8cc\	.
.	8dd-\J 8b-\)	.
=96	=96	=96
4AA-/	4dd-\ 4b-\	.
8A-\L 8E-\	2cc\ 2a-\	.
8A-\J 8E-\	.	.
4A-\ 4E-\	.	.
4r	4ee-\ 4cc\ 4e-\	.
=97	=97	=97
!	!	!LO:DY:rj
2D-/ 2DD-^^/	4.aa-\ 4.ff\ 4.a-^^\	f
.	8gg\ 8een\	.
4D-/ 4DD-/	4aa-\ 4ff\	.
4F/ 4FF/	4ff\ 4dd-\	.
=98	=98	=98
4A-\ 4AA-\	(8ff\L 8dd-\	.
.	8ee-X\J 8cc\)	.
8c\L 8A-\ 8E-\	2cc/ 2a-/	.
8c\J 8A-\ 8E-\	.	.
4c\ 4A-\ 4E-\	.	.
4c\ 4A-\ 4E-\	4ee-\ 4cc\	.
!!LO:LB:g=original
=99	=99	=99
4D-/ 4DD-/	4.aa-\ 4.ff^\	.
4d-\ 4A-\ 4F\	.	.
.	(8gg\	.
4F/ 4FF/	8bb-\L	.
.	8aa-\	.
4d-\ 4A-\ 4F\	8gg\	.
.	8ff\J)	.
=100	=100	=100
4A-\ 4AA-\	(8ff\L	.
.	8ee-\J)	.
8c\L 8A-\ 8E-\	[4cc\	.
8c\J 8A-\ 8E-\	.	.
4c\ 4A-\ 4E-\	8cc/L]	.
.	(8a-/	>
4r	8g/	.
.	8f/J)	]]
=101	=101	=101
4E-/ 4EE-/	(8e-/L	mf
.	8f/)	.
2d-\ 2G\ 2E-\	8g'/	.
.	8a-'/J	.
.	4b-\	.
4d-\ 4G\ 4E-\	4cc\	.
=102	=102	=102
4GG/	4dd-\	.
4d-\ 4B-\ 4E-\	2ff\ 2dd-^\	.
4EE-/	.	.
4d-\ 4G\ 4E-\	(8ee-\L	.
.	8dd-\J)	.
=103	=103	=103
4AA-/	(8cc\L	.
.	8ee-\)	.
4c\ 4A-\ 4E-\	8ff'\	.
.	8ee-'\J	.
4E-/ 4EE-/	4.dd-\	.
4d-\ 4G\ 4E-\	.	.
.	8g/	.
=104	=104	=104
4AA-/	(8b-/L	.
.	8a-/J)	.
8A-\L 8E-\	2a-/ 2c/	.
8A-\J 8E-\	.	.
4AA-/	.	.
!	!LO:MO:mod=!LO&colon;TX&colon;B&colon;t=Marcia d.s. [segno] e poi Coda*	!
!	!LO:TX:a:t=Marcia d.s. [segno] e poi Coda*	!
4r	(8ee-\L	.
.	8cc\J)	.
!!LO:LB:g=original
=105||	=105||	=105||
*>I	*coda	*
!	!LO:MO:mod=!LO&colon;TX&colon;B&colon;t=*Coda	!
!	!LO:TX:a:t=*Coda	!
4E-/ 4EE-/	2ee-/ 2e-/	.
4B-\ 4G\ 4E-\	.	.
4e-\ 4B-\ 4G\	4r	.
!	!	!LO:DY:rj
(8e-\L	(8ee-\L	f
8c\J)	8cc\J)	.
=106	=106	=106
4B-'\	4b-'\	.
(8G\L	(8g/L	.
8c\J)	8cc/J)	.
4B-'\	4b-'\	.
(8e-\L	(8ee-\L	.
8c\J)	8cc\J)	.
=107	=107	=107
4B-\	4b-\	.
(8G\L	(8g/L	.
8c\J)	8cc/J)	.
4B-\	4b-\	.
(8e-\L	(8ee-\L	.
8c\J)	8cc\J)	.
=108	=108	=108
4B-\	4b-\	.
4r	8cc'\L	.
.	8dd-'\J	<
2r	8ee-'\L	.
.	8ff'\	.
.	8gg'\	.
.	8aa-'\J	[
=109	=109	=109
4r	4bb-\	.
!	!	!LO:DY:rj
4B-\ 4BB-^^\	4dd-/ 4b-/ 4a-/ 4f^^/	ff
4E-/ 4EE-^^/	4ee-/ 4b-/ 4g/ 4e-^^/	.
4r	4r	.
==	==	==
*-	*-	*-
!!!system-decoration: [(s1,s2)]
!!!RDF**kern: > = above
!!!RDF**kern: < = below
!!!ENC-modern: Leszek Kubiak
!!!END-modern: 2022-08-18
!!!EED: Leszek Kubiak
!!!EEV: 2021-05-27
!!!ENC: Katarzyna Serwa
!!!END: 2021-05-10
!!!filter-modern: sic -sq | autostem -r | shed -e "s/LO:DY:(a|b|rj)/LO:dy:$1/L" |  shed -e "s/TX(.*):t=P:/tx$1:t=P:/LG" | modori -m
!!!YEC: Copyright 2022 Narodowy Instytut Fryderyka Chopina (https://polishscores.org)
!!!YEM: License CC-BY-4.0 (https://creativecommons.org/licenses/by/4.0)
